Adwaita++/actions/22/kdeconnect.svg

<svg height="22" viewBox="0 0 22 22" width="22" xmlns="http://www.w3.org/2000/svg">
  <path d="m4 0c-1 0-1 1-1 1v14s0 1 1 1h8c1 0 1-1 1-1v-14s0-1-1-1zm1 3.0039062h6v8.9960938h-6zm3 9.9960938a1 1 0 0 1 1 1 1 1 0 0 1 -1 1 1 1 0 0 1 -1-1 1 1 0 0 1 1-1z" fill="#444" transform="translate(3 3)"/>
</svg>

<svg xmlns="http://www.w3.org/2000/svg" width="22" height="22" viewBox="0 0 22 22">
 <defs>
  <style id="current-color-scheme" type="text/css">
   .ColorScheme-Text { color:#444444; } .ColorScheme-Highlight { color:#4285f4; }
  </style>
 </defs>
 <path style="fill:currentColor" class="ColorScheme-Text" d="M 4 0 C 3 0 3 1 3 1 L 3 15 C 3 15 3 16 4 16 L 12 16 C 13 16 13 15 13 15 L 13 1 C 13 1 13 0 12 0 L 4 0 z M 5 3.0039062 L 11 3.0039062 L 11 12 L 5 12 L 5 3.0039062 z M 8 13 A 1 1 0 0 1 9 14 A 1 1 0 0 1 8 15 A 1 1 0 0 1 7 14 A 1 1 0 0 1 8 13 z" transform="translate(3 3)"/>
</svg>
